X:1
T:Magill, 11.11.11.11
T:Magill, 11.11.11.11
T:Theodore Edson Perkins, 1860
T:Public Domain Courtesy of the Cyber Hymnal™
C:Theodore Edson Perkins, 1860
Z:Public Domain
Z:Courtesy of the Cyber Hymnal™
%%score ( 1 2 ) ( 3 4 )
L:1/8
Q:1/4=83
M:4/8
K:Ab
V:1 treble 
V:2 treble 
V:3 bass 
V:4 bass 
V:1
 ([CA]/[DB]/) | [Ec]2 [FA][DF] | [CE]2 [CA][CA] | [DB]2 [CA][DB] | [Ec]3 ([CA]/[DB]/) | %5
 [Ec]2 [FA][DF] | [CE]2 [EA][EA] | ([DF][FB])[EA][EG] | [EA]3 [EG] | [EG]2 [EG][EA] | %10
 [EB]2 [EB][EA] | (GA)[EB][Ec] | [Gd]3 (c/d/) | ([Ae][Ec])[DB][CA] | (FG)[EA][FB] | %15
 [Ec]2 [Ec][DB] | [CA]3 |] %17
V:2
 x | x4 | x4 | x4 | x4 | x4 | x4 | x4 | x4 | x4 | x4 | E2 x2 | x3 A | x4 | D2 x2 | x4 | x3 |] %17
V:3
 [A,,A,] | [A,,A,]2 [D,A,][F,A,] | A,2 [A,,A,][A,,A,] | [E,G,]2 [E,A,][E,G,] | A,3 [A,,A,] | %5
 [A,,A,]2 [D,A,][F,A,] | A,2 [C,A,][C,A,] | (A,D)[E,C][E,B,] | [A,,C]3 [E,B,] | %9
 [E,B,]2 [E,B,][E,C] | [E,D]2 [E,D][E,C] | (B,C)[E,G,][E,A,] | [E,B,]3 (A,/B,/) | %13
 (CA,)[E,G,][F,A,] | (A,B,)[C,A,][D,A,] | [E,A,]2 [E,A,][E,G,] | [A,,A,]3 |] %17
V:4
 x | x4 | A,2 x2 | x4 | A,3 x | x4 | A,2 x2 | D,2 x2 | x4 | x4 | x4 | E,2 x2 | x3 A, | A,2 x2 | %14
 D,2 x2 | x4 | x3 |] %17

